X:1
T:Prince Albert's Hornpipe [1]
T:Prince Albert's Hornpipe [1]
T:James Hill
C:James Hill
L:1/8
M:2/2
K:Bb
V:1 treble 
V:1
 (d>c) | B2 B,2 (3dcB (3AGF | E2 g4 f>e | d>fB>d c>eA>c | B>(ba>)(g f>)(ed>)(c | %5
 B2) B,2 (3dcB (3AGF | E2 g4 f>e | d>fB>d c>eA>c | B2 b2 B2 :: (F>D) | B,>DF>B d>fb>a | %11
 (g>^f)g>a g2 C>B, | A,>CF>A c>fa>g | (f>=e)f>g f2 F>D | B,>DF>B d>fb>a | (g>^f)g>a g2 d>e | %16
 (g>f)d>B (f>e)c>A | B2 b2 [DB]2 :| %18

